X:74
T:Jig of Slurs
Z: id:dc-jig-176
M:6/8
L:1/8
K:D Major
B|A2d dcd|Bdd Add|Bdd Add|Bee edB|!
A2d dcd|Bdd Add|Bdd cde|fdc d2:|!
B|A2f fef|aff fed|Bee ede|fed edB|!
A2f fef|aff fed|Bdd cde|fdc d2:|!
K:G Major
B|G2g gfg|agf gdB|G2g gfg|agf g3|!
G2g gfg|agf ged|Bee efg|fed e2:|!
z|GBB Bdd|dee edB|GBB Bdd|dee efg|!
GBB Bdd|dee edB|Bee efg|fed e2:|!

